images/rss.svg

<svg xmlns="http://www.w3.org/2000/svg" width="256" height="256" viewBox="0 0 8 8"><title>RSS feed icon</title><path d="M1.5 0C.669 0 0 .669 0 1.5v5C0 7.331.669 8 1.5 8h5C7.331 8 8 7.331 8 6.5v-5C8 .669 7.331 0 6.5 0zM1 1a6 6 0 0 1 6 6H6a5 5 0 0 0-5-5zm0 2a4 4 0 0 1 4 4H4a3 3 0 0 0-3-3zm1 2a1 1 0 0 1 1 1 1 1 0 0 1-1 1 1 1 0 0 1-1-1 1 1 0 0 1 1-1" style="stroke:none;fill:#fff"/></svg>

<?xml version="1.0" encoding="UTF-8" standalone="no"?>
<svg
   id="RSSicon"
   viewBox="0 0 8 8"
   width="256"
   height="256"
   version="1.1"
   sodipodi:docname="rss.svg"
   inkscape:version="1.4 (e7c3feb1, 2024-10-09)"
   xmlns:inkscape="http://www.inkscape.org/namespaces/inkscape"
   xmlns:sodipodi="http://sodipodi.sourceforge.net/DTD/sodipodi-0.dtd"
   xmlns="http://www.w3.org/2000/svg"
   xmlns:svg="http://www.w3.org/2000/svg"
   xmlns:rdf="http://www.w3.org/1999/02/22-rdf-syntax-ns#"
   xmlns:cc="http://creativecommons.org/ns#"
   xmlns:dc="http://purl.org/dc/elements/1.1/">
  <defs
     id="defs2" />
  <sodipodi:namedview
     id="namedview2"
     pagecolor="#c30c54"
     bordercolor="#000000"
     borderopacity="0.25"
     inkscape:showpageshadow="2"
     inkscape:pageopacity="0.0"
     inkscape:pagecheckerboard="0"
     inkscape:deskcolor="#d1d1d1"
     inkscape:zoom="1.3094621"
     inkscape:cx="124.86043"
     inkscape:cy="157.69834"
     inkscape:window-width="1200"
     inkscape:window-height="1186"
     inkscape:window-x="61"
     inkscape:window-y="25"
     inkscape:window-maximized="0"
     inkscape:current-layer="RSSicon" />
  <title
     id="title1">RSS feed icon</title>
  <style
     type="text/css"
     id="style1">
    .button { stroke: none; fill: white; }
    .symbol { stroke: none; fill: #161a1c; }
  </style>
  <path
     id="rect1"
     class="button"
     d="M 1.5 0 C 0.669 0 0 0.669 0 1.5 L 0 6.5 C 0 7.331 0.669 8 1.5 8 L 6.5 8 C 7.331 8 8 7.331 8 6.5 L 8 1.5 C 8 0.669 7.331 0 6.5 0 L 1.5 0 z M 1 1 A 6 6 0 0 1 7 7 L 6 7 A 5 5 0 0 0 1 2 L 1 1 z M 1 3 A 4 4 0 0 1 5 7 L 4 7 A 3 3 0 0 0 1 4 L 1 3 z M 2 5 A 1 1 0 0 1 3 6 A 1 1 0 0 1 2 7 A 1 1 0 0 1 1 6 A 1 1 0 0 1 2 5 z " />
  <metadata
     id="metadata2">
    <rdf:RDF>
      <cc:Work
         rdf:about="">
        <dc:title>RSS feed icon</dc:title>
      </cc:Work>
    </rdf:RDF>
  </metadata>
</svg>
